X:1
T:Pretty Marion
R:strathspey
D:John Campbell, Cape Breton Violin Music (1975-2006)
O:Scottish
N:for a 4 part Kinnon Beaton reel setting see Dungreen Collection (revised 2007)
Z:Paul Stewart Cranford (P.S.C.), <http://www.cranfordpub.com>
L:1/8
M:C
Q:300
K:A
a|f2 e>c e<fa<e|f2 e>c f>BB<g|f2 e>c e<f=g>e|f>ae>c e>AA<b|
f2 e>c e>fa<e|f2 e>c f>BB<g|f2 e>c e>f=g<e|f>ae>c e>AA||
||b|e<Ae>c A/A/A e>f|e<Ae>c f>BB>b|e<Ae>c e<f=g<e|f>ae>c e>AA>b|
e<Ae>c A/A/A e>f|e>fe>c f>BB>=g|f2 e>c e>f=g<e|f>ae>c e>AA|]
